!!!COM: Bach, Johann Sebastian
!!!CDT: 1685/3/-1750/7/28
!!!OPR@@DE: Das wohltemperierte Klavier
!!!OPR@EN: The Well-Tempered Clavier
!!!OTL: The Well-Tempered Clavier, Book 2, Fugue 15 in G major
!!!SCT: BWV 884b
!!!parts: 3
**kern	**kern	**kern
*staff2	*staff1	*staff1
*clefF4	*clefG2	*clefG2
*k[f#]	*k[f#]	*k[f#]
*M3/8	*M3/8	*M3/8
*G:	*G:	*G:
*MM80	*MM80	*MM80
=1	=1	=1
4.r	4.r	16r
.	.	16ddL
.	.	16b
.	.	16dd
.	.	16gg
.	.	16ddJ
=2	=2	=2
4.r	4.r	16bL
.	.	16dd
.	.	16g
.	.	16dd
.	.	16b
.	.	16ddJ
=3	=3	=3
4.r	4.r	16eeL
.	.	16cc
.	.	16a
.	.	16cc
.	.	16f#
.	.	16aJ
=4	=4	=4
4.r	4.r	16ddL
.	.	16b
.	.	16g
.	.	16b
.	.	16e
.	.	16gJ
=5	=5	=5
4.r	4.r	16ccL
.	.	16a
.	.	16f#
.	.	16a
.	.	16d
.	.	16f#J
=6	=6	=6
4.r	4.r	16bL
.	.	16a
.	.	16g
.	.	16a
.	.	16b
.	.	16ccJ
=7	=7	=7
4.r	4.r	16ddL
.	.	16a
.	.	16b
.	.	16cc#
.	.	16dd
.	.	16eeJ
=8	=8	=8
4.r	16r	16ff#L
.	16gL	16ee
.	16f#	16dd
.	16a	16ee
.	16dd	16ff#
.	16aJ	16ggJ
=9	=9	=9
4.r	16f#L	8aaL
.	16a	.
.	16d	8r
.	16a	.
.	16f#	8aaJ
.	16aJ	.
=10	=10	=10
4.r	16bL	8dd
.	16g	.
.	16e	[4gg
.	16g	.
.	16c#	.
.	16eJ	.
=11	=11	=11
4.r	16aL	8gg]L
.	16f#	.
.	16d	8ff#
.	16f#	.
.	16B	8ddJ
.	16dJ	.
=12	=12	=12
4.r	16gL	8b
.	16e	.
.	16c#	[4ee
.	16e	.
.	16A	.
.	16c#J	.
=13	=13	=13
4.r	16f#L	16ee]L
.	16e	16gg
.	16d	16ff#
.	16e	16ee
.	16f#	16dd
.	16gJ	16eeJ
=14	=14	=14
4.r	16aL	16ff#L
.	16d	16aa
.	16e	16gg
.	16f#	16ff#
.	16g	16ee
.	16aJ	16ff#J
=15	=15	=15
16r	16bL	8gg
16dL	16a	.
16B	16g	8r
16d	16a	.
16g	16b	8r
16dJ	16ccJ	.
=16	=16	=16
16BL	4dd	8r
16d	.	.
16G	.	[4bb
16d	.	.
16B	8dd	.
16dJ	.	.
=17	=17	=17
16eL	4cc	16bb]L
16c	.	16ee
16A	.	16ff#
16c	.	[8.aaJ
16F#	8cc	.
16AJ	.	.
=18	=18	=18
16dL	4b	16aa]L
16B	.	16dd
16G	.	16ee
16B	.	[8.ggJ
16E	8b	.
16GJ	.	.
=19	=19	=19
16cL	4a	16gg]L
16A	.	16cc
16F#	.	16dd
16A	.	[8.ff#J
16D	8a	.
16F#J	.	.
=20	=20	=20
16BL	4g	8ff#]
16A	.	.
16G	.	[4ee
16A	.	.
16B	8g	.
16c#J	.	.
=21	=21	=21
16dL	4f#	8ee]
16c#	.	.
16B	.	[4dd
16A	.	.
16G	8f#	.
16F#J	.	.
=22	=22	=22
16GL	4e	8dd]L
16E	.	.
16A	.	16cc#
16G	.	16b
16F#	8g	8cc#J
16EJ	.	.
=23	=23	=23
16DL	8f#	8dd
16A	.	.
16F#	8r	8r
16A	.	.
16d	8r	8r
16AJ	.	.
=24	=24	=24
16F#L	8r	8r
16A	.	.
16D	8ccL	8aaL
16A	.	.
16F#	[8aJ	[8ccJ
16AJ	.	.
=25	=25	=25
8B	8a]L	16cc]L
.	.	16dd
8r	8gJ	16b
.	.	16dd
8r	8r	16gg
.	.	16ddJ
=26	=26	=26
8r	8r	16bL
.	.	16dd
8BL	8dL	16g
.	.	16dd
8AJ	[8fnJ	16b
.	.	[16ddJ
=27	=27	=27
16G#L	8f]L	8dd]
16B	.	.
16G#	8eJ	8r
16B	.	.
16e	8r	8r
16BJ	.	.
=28	=28	=28
16G#L	8r	8r
16B	.	.
16E	8ddL	8bbL
16B	.	.
16G#	[8bJ	[8ddJ
16BJ	.	.
=29	=29	=29
8c	8b]L	16dd]L
.	.	16ee
8r	8aJ	16cc
.	.	16ee
8r	8r	16aa
.	.	16eeJ
=30	=30	=30
8r	8r	16ccL
.	.	16ee
8F#L	8cL	16a
.	.	16ee
8EJ	8cc_ [8aJ	16cc
.	.	16eeJ
=31	=31	=31
16D#L	8cc] 8aL	8ff#
16F#	.	.
16D#	8bJ	8r
16F#	.	.
16B	8r	8r
16F#J	.	.
=32	=32	=32
16D#L	8r	8r
16F#	.	.
16BB	8dd#L	[4aa
16F#	.	.
16D#	8ff#J	.
16F#J	.	.
=33	=33	=33
16GL	8bL	8aa]L
16B	.	.
16G	8.ee	16bb
16B	.	16aa
16e	.	16gg
16BJ	16dd#J	16ff#J
=34	=34	=34
16GL	4ee	16eeL
16B	.	16ff#J
16E	.	[4gg
16B	.	.
16G	8b	.
16BJ	.	.
=35	=35	=35
16cL	4a	16gg]L
16A	.	16cc
16F#	.	16dd
16A	.	[8.ff#J
16D	8a	.
16F#J	.	.
=36	=36	=36
16BL	4g	16ff#]L
16G	.	16b
16E	.	16cc
16G	.	[8.eeJ
16C	8g	.
16EJ	.	.
=37	=37	=37
16AL	4f#	16ee]L
16F#	.	16a
16D#	.	16b
16F#	.	[8.dd#J
16BB	[8a	.
16D#J	.	.
=38	=38	=38
16GL	8a]L	8dd#]L
16F#	.	.
16E	8.g	16ee
16F#	.	16dd#
16G	.	[8eeJ
16AJ	16gJ	.
=39	=39	=39
16BL	4f#	8ee]L
16F#	.	.
16G#	.	16ddn
16A#	.	16cc#
16B	8r	16dd
16c#J	.	16eeJ
=40	=40	=40
16dL	4.r	16ff#L
16c#	.	16ee
16B	.	16dd
16c#	.	16ff#
16d	.	16bb
16eJ	.	16ff#J
=41	=41	=41
16f#L	8r	16ddL
16eJ	.	16ff#
[4d	8r	16b
.	.	16ff#
.	8f#	16dd
.	.	16ff#J
=42	=42	=42
16d]L	4e	16ggL
16G	.	16ee
16A	.	16cc#
[8.c#J	.	16ee
.	8e	16a
.	.	16cc#J
=43	=43	=43
16c#]L	4d	16ff#L
16F#	.	16dd
16G	.	16b
[8.BJ	.	16dd
.	8d	16g
.	.	16bJ
=44	=44	=44
16B]L	4c#	16eeL
16E	.	16cc#
16F#	.	16a#
8A#	.	16cc#
.	8c#	16f#
16F#J	.	16a#J
=45	=45	=45
8BL	4B	16ddL
.	.	16ff#
8BBJ	.	16b
.	.	16dd
8r	8r	16ff#
.	.	16ddJ
=46	=46	=46
8r	8r	16bL
.	.	16dd
8DL	8r	16f#
.	.	16b
8BBJ	16r	[8ddJ
.	16a	.
=47	=47	=47
8EL	16g#L	4.dd_
.	16b	.
8EEJ	16e	.
.	16g#	.
8r	16b	.
.	16g#J	.
=48	=48	=48
8r	16eL	4.dd_
.	16g#	.
8G#L	16B	.
.	16e	.
16E	[8g#J	.
16dJ	.	.
=49	=49	=49
16cL	8g#]L	8dd]L
16e	.	.
16A	8a	8cc
16c	.	.
16e	8aJ	8ccJ
16cJ	.	.
=50	=50	=50
16AL	[4.a	[4.ccT
16c	.	.
16E	.	.
16A	.	.
16c	.	.
16GJ	.	.
=51	=51	=51
16F#L	8a]L	8cc]L
16A	.	.
16D	8f#	8cc
16F#	.	.
16A	8f#J	8ccJ
16F#J	.	.
=52	=52	=52
16DL	[4.f#t	[4.cc
16F#	.	.
16AA	.	.
16D	.	.
16F#	.	.
16CJ	.	.
=53	=53	=53
16BBL	8f#]L	8cc]L
16D	.	.
16GG	8g	8b
16BB	.	.
16D	8gJ	8bJ
16BBJ	.	.
=54	=54	=54
16GGL	8gL	[4b
16BB	.	.
16DD	16fn	.
16GG	16e	.
16BB	8dJ	16b]L
16FFnJ	.	[16bJ
=55	=55	=55
16EEL	[4.c	16b]L
16GG	.	16b
16CC	.	16a
16DD	.	16f#
16EE	.	16g
16CCJ	.	16eJ
=56	=56	=56
8DDL	8c]L	16f#L
.	.	16a
*	*clefF4	*
8D	8F#	16d
.	.	16f#
8DJ	8F#J	16a
.	.	16f#J
=57	=57	=57
[4.D	[4F#t	16dL
.	.	16f#
.	.	16A
.	.	16d
.	16F#]L	16f#
.	32E	16cJ
.	32F#J	.
=58	=58	=58
8D]L	8GL	16BL
.	.	16d
8D	8G	16B
.	.	16d
8DJ	8GJ	16g
.	.	16dJ
=59	=59	=59
[4DT	8G	16BL
.	.	16d
.	8r	16G
.	.	16B
16D]L	8r	16d
32C#	.	16BJ
32DJ	.	.
=60	=60	=60
8EL	8EL	16GL
*	*	*strophe
*	*	*^
*	*	*S/sic	*S/ossia
.	.	16B-xx	16cxx
*	*	*v	*v
*	*	*Xstrophe
8DD	8BB- 8GG	16E
.	.	16G
8DDJ	8BB- 8GGJ	16B-
.	.	16DJ
=61	=61	=61
8DD	[4C#t	16r
.	.	16B-L
8r	.	16A
.	.	16G
8r	16C#]L	16e
.	32BBn	16GJ
.	32C#J	.
=62	=62	=62
8DL	16F#mL	4.r
.	16E	.
16r	8DJ	.
32DD	.	.
32EE	.	.
32FF#	8r	.
32GG	.	.
32AA	.	.
32BBJ	.	.
=63	=63	=63
32CL	4r	4.r
32AA	.	.
32BB	.	.
32C	.	.
32D	.	.
32E	.	.
32F#	.	.
32G	.	.
32AJ	32r	.
32r	32F#L	.
16r	32G	.
.	32AJ	.
=64	=64	=64
8r	32BL	8r
.	32c#	.
.	32d	.
.	32e	.
8DL	32f#J	32r
.	32r	32dL
.	16r	32e
.	.	32f#
8C#J	8r	32g
.	.	32a
.	.	32b
.	.	32ccnJ
=65	=65	=65
8BBL	16r	[4.dd
.	16dL	.
8BJ	16B	.
.	16d	.
8r	16g	.
.	16dJ	.
=66	=66	=66
8r	16BL	4.dd_
.	16d	.
8r	16G	.
.	16d	.
8G	16B	.
.	16dJ	.
=67	=67	=67
8CL	16eL	8dd]
.	16c	.
8r	16A	[4cc
.	16c	.
8AAJ	16F#	.
.	16AJ	.
=68	=68	=68
8BBL	16dL	8cc]
.	16B	.
8r	16G	[4b
.	16B	.
8GGJ	16E	.
.	16GJ	.
=69	=69	=69
8AAL	16cL	8b]L
.	16A	.
8r	16F#	16a
.	16A	16cc
8DJ	16D	16ff#
.	16F#J	[16aaJ
=70	=70	=70
8GL	8BL	16aa]L
.	.	8gg
8A	8c	.
.	.	16ff#
8BJ	8dJ	16gg
.	.	32ff#
.	.	32eeJ
=71	=71	=71
8r	8r	32ddL
.	.	32cc
.	.	32b
.	.	32a
8CL	8BL	32g
.	.	32b
.	.	32a
.	.	32g
8DJ	8AJ	32f#
.	.	32e
.	.	32d
.	.	32cJ
=72	=72	=72
4.GG;	4.G;	4.B;
==	==	==
*-	*-	*-
!!!OTA: Das wohltemperirte Clavier
!!!OCY: Deutschland
!!!PPP: Leipzig
!!!ODT: 1729//-1734//
!!!PDT: 1739//-1742//
!!!AFR: fuga; fugue
!!!AST: polyphony
!!!AMT: simple triple
!!!SCA: Bach-Werke-Verzeichnis
!!!YOR: Bach-Gesellschaft Ausgabe, Band 14
!!!YOO: Breitkopf und Härtel
!!!YOY: 1866
!!!YOE: Franz Kroll (1820-1877)
!!!AIN: cemba; clavi
!!!YEC: Copyright 1994, David Huron
!!!YEM: Rights to all derivative electronic formats reserved.
!!!ENC: David Huron
!!!END: 1986/12/08
!!!EED: David Huron
!!!YER: 1994/08/10
!!!EED2: Craig Stuart Sapp (notational niceties)
!!!EEV: 2020/09/19
!!!EFL: 39/48
